X:3691
L:1/8
Q:1/8=60
M:3/4
K:D
"^A modal""^slow - simplified version" A2 B || c2 dc/d/ e2 | f2 dc/d/ ea | e2 dB A2 | G4 AB | 
 c2 dc/d/ ef | gf ed ea | e2 dB A2 | A3 || e2 f/g/ || ag fe fg | fe d2 ea | e2 dB A2 | GA B2 A2 | 
 c2 dc/d/ ef | gf ed ea | e2 dB A2- | A6 |]

